X:2412
T:Calder Fair. GS.072
T:Cawdor Fair,aka. GS.072
T:Sing a Song of Sixpence,aka. GS.072
M:2/2
L:1/8
Q:200
S:George Spencer m/s, Leeds,1831
R:Reel
O:England
A:Leeds
N:Some sort of relative of "Sing a song of sixpence"?
H:1831
Z:vmp.Cherri Graebe
K:D major
dcBA (Bd) F2 | G2 AF A2A2 | dcBA Bd F2 | EDFA B2B2 :||:!
Addd d2d2 | Beee e2 de | fedc dcBA | Bdce d2d2 :||


